X: 4316
T: Bog Man, The
R: reel
M: 4/4
K: Ddorian
e|:fedf eage|dged cAGE|FFDE FGAB|cA (3AAA cAGA|
fedf eage|(3ddd ed cAGE|F3E FGAB|cAGE EDD2:|
|:Ad (3ddd bdad|eaag e2 eg|ec (3ccc Gced|cAGA cAG2|
Ad (3ddd bdad|eaag e2 eg|gaag efed|cAGE EDD2:|

